X:253
T: O STRASSBURG DU WUNDERSCHOENE STADT
N: E1392A
O: Europa, Mitteleuropa, Deutschland
R: Staende -, Soldaten - Lied
M: 2/4
L: 1/16
K: C
G,2 | C4E2E2 | D4F2
F2 | E2E2G2E2 | D4z2
G,2 | C4E2E2 | D4F2
F2 | E2E2G2E2 | D4z2
G,2 | F2F2F2F2 | E2G2E2
C2 | D2FED2B,2 | C2E2G2
G,2 | F2F2F2F2 | E2G2E2
C2 | D2FED2B,2 | C4z2

